packages/ui-icons/svg/Solid/mic.svg

<svg viewBox="0 0 1920 1920" version="1.1" xmlns="http://www.w3.org/2000/svg">
    <path d="M425.817625,709.983006 L425.817625,943.4103 C425.817625,1236.96134 664.763523,1475.90724 958.314561,1475.90724 C1251.8656,1475.90724 1490.8115,1236.96134 1490.8115,943.4103 L1490.8115,709.983006 L1587.62912,709.983006 L1587.62912,943.4103 C1587.62912,1274.11677 1331.19106,1546.07818 1006.72823,1570.88121 L1006.723,1823.182 L1248.76744,1823.18238 L1248.76744,1920 L667.861687,1920 L667.861687,1823.18238 L909.905,1823.182 L909.900895,1570.88121 C585.438064,1546.07818 329,1274.11677 329,943.4103 L329,709.983006 L425.817625,709.983006 Z M958.314561,0 C1198.51909,0 1393.99387,195.474785 1393.99387,435.679312 L1393.99387,919.767436 C1393.99387,1159.97196 1198.51909,1355.44675 958.314561,1355.44675 C718.110034,1355.44675 522.63525,1159.97196 522.63525,919.767436 L522.63525,435.679312 C522.63525,195.474785 718.110034,0 958.314561,0 Z" stroke="none" stroke-width="1" fill-rule="evenodd"/>
</svg>

<svg viewBox="0 0 1920 1920" version="1.1" xmlns="http://www.w3.org/2000/svg">
    <path d="M1006.723 1823.182h242.044V1920H667.862v-96.818h242.044v-252.3C585.44 1546.08 329 1274.118 329 943.41V709.983h96.818V943.41c0 293.551 238.946 532.497 532.497 532.497 293.55 0 532.496-238.946 532.496-532.497V709.983h96.818V943.41c0 330.708-256.44 602.67-580.906 627.472v252.3zm-48.408-467.735c-240.205 0-435.68-195.475-435.68-435.68V435.68C522.635 195.475 718.11 0 958.315 0c240.204 0 435.679 195.475 435.679 435.68v484.087c0 240.205-195.475 435.68-435.68 435.68z" stroke="none" stroke-width="1" fill-rule="evenodd"/>
</svg>
